src/wp-content/themes/aquaban/assets/images/paket3.svg

<svg width="42" height="54" viewBox="0 0 42 54" fill="none" xmlns="http://www.w3.org/2000/svg">
<path d="M17.42 0.856254C17.4 0.404093 17.7993 -0.00686693 18.2525 0.00581049C19.8066 -0.00158468 21.3606 -0.00264113 22.9136 0.00686694C23.3594 -0.00158468 23.7482 0.404093 23.7355 0.847802C23.7471 2.11026 23.7345 3.37272 23.7397 4.63518C24.3451 4.64046 24.9494 4.62779 25.5537 4.63835C25.9171 4.62145 26.2562 4.87288 26.3661 5.21517C26.7622 6.33396 27.1436 7.45908 27.5366 8.57892C28.4948 8.58842 29.453 8.56307 30.4112 8.59159C31.7075 8.67083 32.8242 9.81602 32.8749 11.1133C32.8928 12.0631 32.8876 13.0128 32.877 13.9626C32.8833 14.4718 32.3773 14.8416 31.8924 14.7845C24.4613 14.7824 17.0292 14.7887 9.59807 14.7813C9.14274 14.8035 8.7096 14.42 8.71805 13.9563C8.7096 13.0076 8.70432 12.0589 8.72227 11.1102C8.77193 9.84243 9.84212 8.71942 11.1035 8.59899C11.9466 8.55462 12.7917 8.59159 13.6358 8.57997C14.0288 7.45908 14.4102 6.33396 14.8064 5.21517C14.9152 4.87077 15.2564 4.62145 15.6188 4.63835C16.2178 4.62779 16.8168 4.63941 17.4148 4.63624C17.4211 3.37589 17.4084 2.11554 17.42 0.856254ZM19.1072 1.69191C19.1051 2.67335 19.1051 3.65479 19.1072 4.63518C20.0876 4.63518 21.068 4.63518 22.0484 4.63518C22.0494 3.65479 22.0494 2.67335 22.0484 1.69191C21.068 1.69085 20.0876 1.69191 19.1072 1.69191ZM16.2125 6.3255C15.9495 7.07559 15.6906 7.82778 15.4307 8.57892C18.8674 8.57997 22.304 8.57997 25.7417 8.57892C25.4829 7.82778 25.2262 7.07559 24.9642 6.3255C22.0473 6.32656 19.1294 6.3255 16.2125 6.3255ZM10.4094 11.2179C10.3862 11.8402 10.4094 12.4635 10.401 13.0857C17.3313 13.0879 24.2616 13.0889 31.193 13.0857C31.1835 12.4624 31.2078 11.8381 31.1835 11.2148C31.1708 10.6633 30.6415 10.2238 30.0996 10.264C23.8993 10.2618 17.6979 10.2618 11.4965 10.264C10.9524 10.2217 10.42 10.6633 10.4094 11.2179Z" fill="#00AFEA"/>
<path d="M10.644 16.0301C11.2071 16.029 11.7702 16.029 12.3333 16.0301C12.3343 17.1362 12.3333 18.2423 12.3333 19.3484C11.7702 19.3484 11.2071 19.3484 10.6429 19.3473C10.6429 18.2423 10.6419 17.1362 10.644 16.0301Z" fill="#00AFEA"/>
<path d="M19.9524 16.0301C20.5155 16.029 21.0786 16.029 21.6427 16.0301C21.6427 17.1362 21.6427 18.2423 21.6427 19.3484C21.0786 19.3484 20.5155 19.3484 19.9524 19.3484C19.9524 18.2423 19.9513 17.1362 19.9524 16.0301Z" fill="#00AFEA"/>
<path d="M29.2618 16.0301C29.8249 16.029 30.388 16.029 30.9511 16.0301C30.9532 17.1362 30.9521 18.2423 30.9521 19.3473C30.388 19.3484 29.8249 19.3484 29.2618 19.3484C29.2618 18.2423 29.2608 17.1362 29.2618 16.0301Z" fill="#00AFEA"/>
<path d="M8.83112 21.0038C9.3361 20.782 9.90025 20.8306 10.4369 20.8264C17.5542 20.8285 24.6705 20.8264 31.7868 20.8274C32.428 20.8063 33.0756 21.0461 33.5162 21.5183C33.8764 21.8818 34.037 22.3793 34.1965 22.8516C35.0554 25.3364 35.9228 27.818 36.7806 30.3017C36.9084 30.6704 37.1472 30.9831 37.3574 31.3074C38.342 32.8255 39.3256 34.3447 40.3113 35.8618C41.0677 36.9299 41.561 38.2018 41.579 39.5203C41.5906 40.6845 41.5864 41.8498 41.5811 43.014C41.5706 44.2099 41.2156 45.4015 40.5564 46.4009C40.0503 47.1859 39.3319 47.7955 38.6896 48.4631C38.6812 49.8143 38.697 51.1666 38.6833 52.5189C38.6854 53.1686 38.2406 53.7538 37.6511 54H29.9644C29.3802 53.7538 28.9322 53.176 28.9333 52.5294C28.9185 51.3388 28.9343 50.1471 28.9269 48.9576C23.5073 48.9576 18.0877 48.9576 12.6682 48.9565C12.6608 50.1482 12.6777 51.3388 12.6618 52.5294C12.6597 53.176 12.2139 53.7549 11.6286 54H3.94925C3.36081 53.7549 2.90971 53.1739 2.91182 52.5231C2.89703 51.1666 2.91499 49.8101 2.90442 48.4547C2.01278 47.5694 1.04084 46.6999 0.552763 45.5104C-0.237463 43.8348 0.0720769 41.9448 0.0086898 40.1584C-0.0504715 38.8146 0.259069 37.4433 0.997529 36.3097C2.18498 34.4715 3.37666 32.6364 4.56939 30.8014C4.6687 30.644 4.7511 30.476 4.81449 30.3006C5.72832 27.6595 6.64638 25.0205 7.56443 22.3815C7.76727 21.7698 8.22894 21.2458 8.83112 21.0038ZM9.16707 22.9129C8.33036 25.3025 7.50738 27.6965 6.67701 30.0883C16.0921 30.0893 25.5072 30.0893 34.9223 30.0883C34.0888 27.6965 33.2658 25.3004 32.427 22.9107C32.352 22.6361 32.0678 22.4892 31.7963 22.5177C24.4655 22.5177 17.1348 22.5177 9.80517 22.5177C9.52943 22.486 9.24419 22.6371 9.16707 22.9129ZM5.94595 31.7807C5.44202 32.5604 4.93598 33.3379 4.43205 34.1176C6.18999 34.1197 7.94792 34.1144 9.70586 34.1186C10.046 34.0965 10.3704 34.2792 10.5299 34.5793C11.1669 35.6315 11.8114 36.6805 12.44 37.7391C12.8826 38.4945 12.6417 39.552 11.917 40.0411C11.4955 40.3591 10.9504 40.3887 10.4443 40.3739C7.52746 40.3697 4.61165 40.3718 1.69584 40.3728C1.69901 41.2539 1.69056 42.136 1.69901 43.0182C1.70746 43.7915 1.91347 44.5627 2.29908 45.2346C2.74807 46.0365 3.48019 46.6175 4.10561 47.2736C7.43132 47.2736 10.757 47.2746 14.0827 47.2736C14.0859 45.6065 14.0785 43.9384 14.0859 42.2713C14.0616 41.7874 14.5074 41.368 14.9881 41.4082C18.8621 41.406 22.7351 41.406 26.6091 41.4082C27.0908 41.367 27.5367 41.7874 27.5134 42.2723C27.5219 43.9373 27.5134 45.6023 27.5176 47.2662C30.8423 47.2672 34.168 47.2662 37.4927 47.2672C37.8846 46.8742 38.2839 46.4897 38.6653 46.0861C39.4386 45.2631 39.8813 44.1454 39.8908 43.0171C39.9003 42.1361 39.8919 41.2539 39.895 40.3728C36.8736 40.3707 33.8521 40.3728 30.8307 40.3718C30.35 40.3834 29.8577 40.2365 29.5048 39.9006C28.909 39.3734 28.7516 38.4258 29.1562 37.738C29.7869 36.6784 30.4303 35.6283 31.0684 34.574C31.23 34.2824 31.548 34.0975 31.8829 34.1186C33.6429 34.1144 35.403 34.1197 37.1641 34.1165C36.6612 33.3379 36.1531 32.5614 35.6523 31.7818C25.7502 31.7775 15.8481 31.7786 5.94595 31.7807ZM1.81839 38.6804C4.73103 38.6846 7.64367 38.6772 10.5552 38.6846C10.6958 38.6698 10.8722 38.7195 10.9683 38.5864C10.4295 37.6493 9.85271 36.7344 9.29701 35.8079C7.30983 35.8079 5.32264 35.8079 3.33546 35.8079C2.7618 36.7249 2.04342 37.5944 1.81839 38.6804ZM32.2981 35.8079C31.7424 36.7344 31.1666 37.6482 30.6268 38.5832C30.7208 38.7227 30.8972 38.6709 31.0398 38.6846C33.9514 38.6762 36.8641 38.6846 39.7756 38.6804C39.5485 37.5954 38.8343 36.726 38.2628 35.8079C36.2746 35.8079 34.2863 35.8079 32.2981 35.8079ZM15.7741 47.2672C19.1241 47.2693 22.4752 47.2609 25.8252 47.2736C25.8273 45.8812 25.8273 44.4898 25.8252 43.0974C22.4752 43.0974 19.1252 43.0974 15.7752 43.0974C15.772 44.4877 15.7731 45.8769 15.7741 47.2672ZM4.59686 48.9586C4.59792 50.108 4.59686 51.2585 4.59792 52.4079C6.7235 52.409 8.85013 52.409 10.9757 52.4079C10.9768 51.2575 10.9768 50.108 10.9757 48.9576C8.85013 48.9576 6.7235 48.9554 4.59686 48.9586ZM30.6194 48.9576C30.6173 50.107 30.6183 51.2575 30.6194 52.4079C32.745 52.409 34.8716 52.409 36.9972 52.4079C36.9972 51.2575 36.9982 50.108 36.9972 48.9576C34.8705 48.9565 32.745 48.9565 30.6194 48.9576Z" fill="#00AFEA"/>
</svg>

<svg width="42" height="54" fill="none" xmlns="http://www.w3.org/2000/svg"><path d="M17.42.856c-.02-.452.38-.863.832-.85 1.555-.008 3.109-.009 4.662 0 .445-.008.834.398.821.842.012 1.262 0 2.525.005 3.787.605.005 1.21-.007 1.814.003a.835.835 0 01.812.577c.396 1.119.778 2.244 1.17 3.364.959.01 1.917-.016 2.875.013 1.296.079 2.413 1.224 2.464 2.521.018.95.013 1.9.002 2.85.006.509-.5.879-.985.822-7.43-.003-14.863.004-22.294-.004-.455.022-.888-.361-.88-.825-.008-.948-.014-1.897.004-2.846.05-1.268 1.12-2.39 2.382-2.511.843-.044 1.688-.007 2.532-.019.393-1.12.774-2.246 1.17-3.365a.832.832 0 01.813-.577c.599-.01 1.198.001 1.796-.002.006-1.26-.007-2.52.005-3.78zm1.687.836c-.002.981-.002 1.963 0 2.943h2.941V1.692h-2.94zm-2.895 4.633c-.262.75-.521 1.503-.781 2.254h10.31c-.258-.751-.515-1.503-.777-2.254-2.917.002-5.835 0-8.752 0zm-5.803 4.893c-.023.622 0 1.245-.008 1.868 6.93.002 13.86.003 20.792 0-.01-.624.015-1.248-.01-1.871-.012-.552-.541-.991-1.083-.951-6.2-.002-12.402-.002-18.604 0-.544-.042-1.076.4-1.087.954zm.235 4.812h1.69v3.318h-1.691c0-1.106-.001-2.212.001-3.318zm9.308 0h1.69v3.318h-1.69V16.03zm9.31 0h1.69v3.317l-1.69.001V16.03zM8.831 21.004c.505-.222 1.07-.173 1.606-.178 7.117.002 14.234 0 21.35.001.641-.02 1.289.22 1.73.691.36.364.52.861.68 1.334.858 2.484 1.726 4.966 2.584 7.45.127.368.366.681.576 1.005.985 1.518 1.969 3.038 2.954 4.555.757 1.068 1.25 2.34 1.268 3.658.012 1.164.007 2.33.002 3.494a6.285 6.285 0 01-1.025 3.387c-.506.785-1.224 1.394-1.866 2.062-.009 1.351.007 2.704-.007 4.056.002.65-.442 1.235-1.032 1.481h-7.687c-.584-.246-1.032-.824-1.03-1.47-.015-1.191 0-2.383-.007-3.572-5.42 0-10.84 0-16.259-.002-.007 1.192.01 2.383-.006 3.573-.002.647-.448 1.226-1.033 1.471h-7.68c-.588-.245-1.04-.826-1.037-1.477-.015-1.356.003-2.713-.008-4.068-.891-.886-1.863-1.755-2.351-2.945-.79-1.675-.48-3.565-.544-5.352-.06-1.343.25-2.715.989-3.848a2328.33 2328.33 0 013.571-5.51c.1-.157.182-.325.245-.5.914-2.641 1.832-5.28 2.75-7.92.203-.611.665-1.135 1.267-1.377zm.336 1.909c-.837 2.39-1.66 4.784-2.49 7.175h28.245c-.833-2.392-1.656-4.788-2.495-7.177-.075-.275-.36-.422-.63-.393H9.804c-.276-.032-.56.12-.638.395zM5.946 31.78c-.504.78-1.01 1.557-1.514 2.337 1.758.002 3.516-.004 5.274 0a.875.875 0 01.824.461c.637 1.053 1.281 2.102 1.91 3.16.443.756.202 1.813-.523 2.302-.421.318-.967.348-1.473.333-2.917-.004-5.832-.002-8.748-.001.003.88-.005 1.763.003 2.645.008.773.214 1.545.6 2.217.45.801 1.181 1.383 1.807 2.039h9.977c.003-1.668-.005-3.336.003-5.003-.024-.484.421-.903.902-.863 3.874-.002 7.747-.002 11.621 0 .482-.041.928.38.904.864.009 1.665 0 3.33.005 4.994l9.975.001c.392-.393.79-.777 1.172-1.18a4.58 4.58 0 001.226-3.07c.01-.88 0-1.763.004-2.644-3.021-.002-6.043 0-9.064-.001-.481.011-.973-.136-1.326-.471-.596-.528-.753-1.475-.349-2.163.63-1.06 1.274-2.11 1.912-3.164a.879.879 0 01.815-.455c1.76-.005 3.52 0 5.281-.002-.503-.78-1.01-1.556-1.512-2.335-9.902-.005-19.804-.003-29.706-.001zm-4.128 6.9c2.913.004 5.826-.004 8.737.004.14-.015.317.034.413-.099-.538-.937-1.115-1.852-1.671-2.778H3.335c-.573.917-1.292 1.786-1.517 2.872zm30.48-2.873c-.556.926-1.131 1.84-1.671 2.775.094.14.27.088.413.102 2.911-.009 5.824 0 8.736-.005-.228-1.085-.942-1.954-1.513-2.872h-5.965zm-16.524 11.46c3.35.001 6.701-.007 10.051.006.002-1.393.002-2.784 0-4.177h-10.05c-.003 1.39-.002 2.78 0 4.17zm-11.177 1.69v3.45h6.379v-3.45c-2.126 0-4.253-.003-6.38 0zm26.022 0c-.002 1.149 0 2.3 0 3.45h6.378v-3.45c-2.127-.002-4.252-.002-6.378 0z" fill="#00AFEA"/></svg>
